X: 40
T: Praeludia organi op. 5 – Moderato
C: Franciszek Walczyński
%%abc-version 2.0
%%abcx-abcm2ps-target-version 5.9.1 (29 Sep 2008)
%%abc-creator hum2abc beta
%%abcx-conversion-date 2021/10/04 07:38:40
%%abc-edited-by Andrzej Borzym
%%abc-edited-by Katarzyna Serwa
%%abcx-initial-encoding-date 2021-07-26
%%humdrum-veritas 3731616157
%%humdrum-veritas-data 4121643764
%%linebreak <none>
%%barnumbers 0
L: 1/4
M: C
N: Derived from pl-kozmzk--mzk-m-159--029_walczynski-franciszek--praeludia-organi-op-5-moderato.krn
Q: "29.Moderato."
%%staves {1 2}
V: 1 clef=treble
V: 2 clef=bass
K: F
[V:1] z4 & z4 | 
[V:2] z4 & F,2G,B, | 
[V:1] z4 & z4 | 
[V:2] z4 & A,G,F,E,/D,/ | 
[V:1] z4 & z4 | 
[V:2] C2DF & E,C,F,/G,/A,/=B,/ | 
[V:1] z4 & z4 | 
[V:2] EDC_B, & C/G,F,/E,D,/E,/ | 
[V:1] z4 & F2GB | 
[V:2] A,2B,D & F,4- | 
[V:1] z4 & AGF2 | 
[V:2] CB,A,2 & F,3_E, | 
[V:1] zBc_e & F2G2 | 
[V:2] B,3C & D,2_E,C, | 
[V:1] dcB=B & ^FAG2- | 
[V:2] A,D3 & D,^F,G,=F, | 
[V:1] c2df & G2A2 | 
[V:2] C3D & =E,2F,D, | 
[V:1] edc_B & cFE2 | 
[V:2] C=B,C2 & G,>^G,A,=G, | 
[V:1] A2BA & F4- | 
[V:2] C2B,C & F,_E,D,C, | 
[V:1] G4 & F3=E | 
[V:2] D_DCB,- & B,,2C,2 | 
[V:1] F!accent!f3- & F2GB | 
[V:2] B,A,B,D & F,4 | 
[V:1] f4- & AGF2 | 
[V:2] CB,A,2 & F,3_E, | 
[V:1] f2gb & FB2=e | 
[V:2] B,4 & D,2_D,2 | 
[V:1] agfe & fec2 | 
[V:2] CB,A,G, & C,4 | 
[V:1] f4- & c2=B_B | 
[V:2] A,_ED_D & [F,4F,,4]- | 
[V:1] f4- & ABAG | 
[V:2] C=DCB, & [F,4F,,4]- | 
[V:1] !fermata!f4 & A4 |]  
[V:2] C4 & [F,4F,,4] |]  


